static/img/kroki/12794e573d378ffeb1a7623aa4cdddb6.svg

<?xml version="1.0" encoding="us-ascii" standalone="no"?><svg xmlns="http://www.w3.org/2000/svg" xmlns:xlink="http://www.w3.org/1999/xlink" contentStyleType="text/css" height="451px" preserveAspectRatio="none" style="width:736px;height:451px;" version="1.1" viewBox="0 0 736 451" width="736px" zoomAndPan="magnify"><defs/><g><!--class aws_backup_protected_resource--><g id="elem_aws_backup_protected_resource"><rect codeLine="23" fill="#3D176E" height="39.7891" id="aws_backup_protected_resource" rx="2.5" ry="2.5" style="stroke:#000D19;stroke-width:0.5;" width="311" x="7" y="7"/><ellipse cx="22" cy="26.8945" fill="#ADD1B2" rx="11" ry="11" style="stroke:#181818;stroke-width:1.0;"/><path d="M24.9688,32.5352 Q24.3906,32.832 23.75,32.9727 Q23.1094,33.1289 22.4063,33.1289 Q19.9063,33.1289 18.5781,31.4883 Q17.2656,29.832 17.2656,26.707 Q17.2656,23.582 18.5781,21.9258 Q19.9063,20.2695 22.4063,20.2695 Q23.1094,20.2695 23.75,20.4258 Q24.4063,20.582 24.9688,20.8789 L24.9688,23.5977 Q24.3438,23.0195 23.75,22.7539 Q23.1563,22.4727 22.5313,22.4727 Q21.1875,22.4727 20.5,23.5508 Q19.8125,24.6133 19.8125,26.707 Q19.8125,28.8008 20.5,29.8789 Q21.1875,30.9414 22.5313,30.9414 Q23.1563,30.9414 23.75,30.6758 Q24.3438,30.3945 24.9688,29.8164 L24.9688,32.5352 Z " fill="#000000"/><text fill="#D9B8FF" font-family="Helvetica" font-size="17" lengthAdjust="spacing" textLength="269" x="41" y="32.7798">aws_backup_protected_resource</text></g><!--class aws_ec2_instance--><g id="elem_aws_ec2_instance"><rect codeLine="26" fill="#3D176E" height="39.7891" id="aws_ec2_instance" rx="2.5" ry="2.5" style="stroke:#000D19;stroke-width:0.5;" width="192" x="131.5" y="106.79"/><ellipse cx="146.5" cy="126.6845" fill="#ADD1B2" rx="11" ry="11" style="stroke:#181818;stroke-width:1.0;"/><path d="M149.4688,132.3252 Q148.8906,132.622 148.25,132.7627 Q147.6094,132.9189 146.9063,132.9189 Q144.4063,132.9189 143.0781,131.2783 Q141.7656,129.622 141.7656,126.497 Q141.7656,123.372 143.0781,121.7158 Q144.4063,120.0595 146.9063,120.0595 Q147.6094,120.0595 148.25,120.2158 Q148.9063,120.372 149.4688,120.6689 L149.4688,123.3877 Q148.8438,122.8095 148.25,122.5439 Q147.6563,122.2627 147.0313,122.2627 Q145.6875,122.2627 145,123.3408 Q144.3125,124.4033 144.3125,126.497 Q144.3125,128.5908 145,129.6689 Q145.6875,130.7314 147.0313,130.7314 Q147.6563,130.7314 148.25,130.4658 Q148.8438,130.1845 149.4688,129.6064 L149.4688,132.3252 Z " fill="#000000"/><text fill="#D9B8FF" font-family="Helvetica" font-size="17" lengthAdjust="spacing" textLength="150" x="165.5" y="132.5698">aws_ec2_instance</text></g><!--class aws_ec2_snapshot--><g id="elem_aws_ec2_snapshot"><rect codeLine="29" fill="#3D176E" height="39.7891" id="aws_ec2_snapshot" rx="2.5" ry="2.5" style="stroke:#000D19;stroke-width:0.5;" width="197" x="429" y="306.37"/><ellipse cx="444" cy="326.2645" fill="#ADD1B2" rx="11" ry="11" style="stroke:#181818;stroke-width:1.0;"/><path d="M446.9688,331.9052 Q446.3906,332.202 445.75,332.3427 Q445.1094,332.4989 444.4063,332.4989 Q441.9063,332.4989 440.5781,330.8583 Q439.2656,329.202 439.2656,326.077 Q439.2656,322.952 440.5781,321.2958 Q441.9063,319.6395 444.4063,319.6395 Q445.1094,319.6395 445.75,319.7958 Q446.4063,319.952 446.9688,320.2489 L446.9688,322.9677 Q446.3438,322.3895 445.75,322.1239 Q445.1563,321.8427 444.5313,321.8427 Q443.1875,321.8427 442.5,322.9208 Q441.8125,323.9833 441.8125,326.077 Q441.8125,328.1708 442.5,329.2489 Q443.1875,330.3114 444.5313,330.3114 Q445.1563,330.3114 445.75,330.0458 Q446.3438,329.7645 446.9688,329.1864 L446.9688,331.9052 Z " fill="#000000"/><text fill="#D9B8FF" font-family="Helvetica" font-size="17" lengthAdjust="spacing" textLength="155" x="463" y="332.1498">aws_ec2_snapshot</text></g><!--class aws_ec2_volume--><g id="elem_aws_ec2_volume"><rect codeLine="32" fill="#3D176E" height="39.7891" id="aws_ec2_volume" rx="2.5" ry="2.5" style="stroke:#000D19;stroke-width:0.5;" width="185" x="284" y="206.58"/><ellipse cx="299" cy="226.4745" fill="#ADD1B2" rx="11" ry="11" style="stroke:#181818;stroke-width:1.0;"/><path d="M301.9688,232.1152 Q301.3906,232.412 300.75,232.5527 Q300.1094,232.7089 299.4063,232.7089 Q296.9063,232.7089 295.5781,231.0683 Q294.2656,229.412 294.2656,226.287 Q294.2656,223.162 295.5781,221.5058 Q296.9063,219.8495 299.4063,219.8495 Q300.1094,219.8495 300.75,220.0058 Q301.4063,220.162 301.9688,220.4589 L301.9688,223.1777 Q301.3438,222.5995 300.75,222.3339 Q300.1563,222.0527 299.5313,222.0527 Q298.1875,222.0527 297.5,223.1308 Q296.8125,224.1933 296.8125,226.287 Q296.8125,228.3808 297.5,229.4589 Q298.1875,230.5214 299.5313,230.5214 Q300.1563,230.5214 300.75,230.2558 Q301.3438,229.9745 301.9688,229.3964 L301.9688,232.1152 Z " fill="#000000"/><text fill="#D9B8FF" font-family="Helvetica" font-size="17" lengthAdjust="spacing" textLength="143" x="318" y="232.3598">aws_ec2_volume</text></g><!--class aws_ec2_volume_type--><g id="elem_aws_ec2_volume_type"><rect codeLine="35" fill="#3D176E" height="39.7891" id="aws_ec2_volume_type" rx="2.5" ry="2.5" style="stroke:#000D19;stroke-width:0.5;" width="231" x="429" y="106.79"/><ellipse cx="444" cy="126.6845" fill="#ADD1B2" rx="11" ry="11" style="stroke:#181818;stroke-width:1.0;"/><path d="M446.9688,132.3252 Q446.3906,132.622 445.75,132.7627 Q445.1094,132.9189 444.4063,132.9189 Q441.9063,132.9189 440.5781,131.2783 Q439.2656,129.622 439.2656,126.497 Q439.2656,123.372 440.5781,121.7158 Q441.9063,120.0595 444.4063,120.0595 Q445.1094,120.0595 445.75,120.2158 Q446.4063,120.372 446.9688,120.6689 L446.9688,123.3877 Q446.3438,122.8095 445.75,122.5439 Q445.1563,122.2627 444.5313,122.2627 Q443.1875,122.2627 442.5,123.3408 Q441.8125,124.4033 441.8125,126.497 Q441.8125,128.5908 442.5,129.6689 Q443.1875,130.7314 444.5313,130.7314 Q445.1563,130.7314 445.75,130.4658 Q446.3438,130.1845 446.9688,129.6064 L446.9688,132.3252 Z " fill="#000000"/><text fill="#D9B8FF" font-family="Helvetica" font-size="17" lengthAdjust="spacing" textLength="189" x="463" y="132.5698">aws_ec2_volume_type</text></g><!--class aws_kms_key--><g id="elem_aws_kms_key"><rect codeLine="38" fill="#3D176E" height="39.7891" id="aws_kms_key" rx="2.5" ry="2.5" style="stroke:#000D19;stroke-width:0.5;" width="158" x="372.5" y="406.16"/><ellipse cx="387.5" cy="426.0545" fill="#ADD1B2" rx="11" ry="11" style="stroke:#181818;stroke-width:1.0;"/><path d="M390.4688,431.6952 Q389.8906,431.992 389.25,432.1327 Q388.6094,432.2889 387.9063,432.2889 Q385.4063,432.2889 384.0781,430.6483 Q382.7656,428.992 382.7656,425.867 Q382.7656,422.742 384.0781,421.0858 Q385.4063,419.4295 387.9063,419.4295 Q388.6094,419.4295 389.25,419.5858 Q389.9063,419.742 390.4688,420.0389 L390.4688,422.7577 Q389.8438,422.1795 389.25,421.9139 Q388.6563,421.6327 388.0313,421.6327 Q386.6875,421.6327 386,422.7108 Q385.3125,423.7733 385.3125,425.867 Q385.3125,427.9608 386,429.0389 Q386.6875,430.1014 388.0313,430.1014 Q388.6563,430.1014 389.25,429.8358 Q389.8438,429.5545 390.4688,428.9764 L390.4688,431.6952 Z " fill="#000000"/><text fill="#D9B8FF" font-family="Helvetica" font-size="17" lengthAdjust="spacing" textLength="116" x="406.5" y="431.9398">aws_kms_key</text></g><!--class aws_region--><g id="elem_aws_region"><rect codeLine="41" fill="#3D176E" height="39.7891" id="aws_region" rx="2.5" ry="2.5" style="stroke:#000D19;stroke-width:0.5;" width="137" x="372" y="7"/><ellipse cx="387" cy="26.8945" fill="#ADD1B2" rx="11" ry="11" style="stroke:#181818;stroke-width:1.0;"/><path d="M389.9688,32.5352 Q389.3906,32.832 388.75,32.9727 Q388.1094,33.1289 387.4063,33.1289 Q384.9063,33.1289 383.5781,31.4883 Q382.2656,29.832 382.2656,26.707 Q382.2656,23.582 383.5781,21.9258 Q384.9063,20.2695 387.4063,20.2695 Q388.1094,20.2695 388.75,20.4258 Q389.4063,20.582 389.9688,20.8789 L389.9688,23.5977 Q389.3438,23.0195 388.75,22.7539 Q388.1563,22.4727 387.5313,22.4727 Q386.1875,22.4727 385.5,23.5508 Q384.8125,24.6133 384.8125,26.707 Q384.8125,28.8008 385.5,29.8789 Q386.1875,30.9414 387.5313,30.9414 Q388.1563,30.9414 388.75,30.6758 Q389.3438,30.3945 389.9688,29.8164 L389.9688,32.5352 Z " fill="#000000"/><text fill="#D9B8FF" font-family="Helvetica" font-size="17" lengthAdjust="spacing" textLength="95" x="406" y="32.7798">aws_region</text></g><!--link aws_backup_protected_resource to aws_ec2_instance--><g id="link_aws_backup_protected_resource_aws_ec2_instance"><path codeLine="44" d="M175.34,47.22 C186.74,64.36 199.9799,84.2823 211.3599,101.4123 " fill="none" id="aws_backup_protected_resource-to-aws_ec2_instance" style="stroke:#1A83AF;stroke-width:2.0;"/><polygon fill="#1A83AF" points="214.68,106.41,213.0316,96.7001,211.9132,102.2453,206.368,101.1269,214.68,106.41" style="stroke:#1A83AF;stroke-width:2.0;"/></g><!--link aws_backup_protected_resource to aws_ec2_volume--><g id="link_aws_backup_protected_resource_aws_ec2_volume"><path codeLine="45" d="M143.51,47.05 C121.3,71.82 90.35,115.46 113.5,146.58 C134.24,174.45 210.7283,194.9742 277.8383,208.5042 " fill="none" id="aws_backup_protected_resource-to-aws_ec2_volume" style="stroke:#1A83AF;stroke-width:2.0;"/><polygon fill="#1A83AF" points="283.72,209.69,275.688,203.9902,278.8186,208.7018,274.107,211.8324,283.72,209.69" style="stroke:#1A83AF;stroke-width:2.0;"/></g><!--link aws_ec2_instance to aws_ec2_volume--><g id="link_aws_ec2_instance_aws_ec2_volume"><path codeLine="46" d="M256.94,147.01 C283.06,164.15 316.0039,185.7778 342.1039,202.9078 " fill="none" id="aws_ec2_instance-to-aws_ec2_volume" style="stroke:#1A83AF;stroke-width:2.0;"/><polygon fill="#1A83AF" points="347.12,206.2,341.7906,197.9176,342.9399,203.4565,337.401,204.6058,347.12,206.2" style="stroke:#1A83AF;stroke-width:2.0;"/></g><!--link aws_ec2_snapshot to aws_kms_key--><g id="link_aws_ec2_snapshot_aws_kms_key"><path codeLine="47" d="M512.48,346.59 C499.16,363.73 483.4817,383.9024 470.1617,401.0424 " fill="none" id="aws_ec2_snapshot-to-aws_kms_key" style="stroke:#1A83AF;stroke-width:2.0;"/><polygon fill="#1A83AF" points="466.48,405.78,475.161,401.1281,469.5481,401.832,468.8442,396.2191,466.48,405.78" style="stroke:#1A83AF;stroke-width:2.0;"/></g><!--link aws_ec2_volume to aws_ec2_snapshot--><g id="link_aws_ec2_volume_aws_ec2_snapshot"><path codeLine="48" d="M406.33,246.8 C432.81,263.94 466.2448,285.5871 492.6948,302.7271 " fill="none" id="aws_ec2_volume-to-aws_ec2_snapshot" style="stroke:#1A83AF;stroke-width:2.0;"/><polygon fill="#1A83AF" points="497.73,305.99,492.3524,297.7388,493.534,303.2709,488.0019,304.4525,497.73,305.99" style="stroke:#1A83AF;stroke-width:2.0;"/></g><!--link aws_ec2_volume to aws_kms_key--><g id="link_aws_ec2_volume_aws_kms_key"><path codeLine="49" d="M381.03,246.75 C386.88,270.53 397.94,312.02 411.5,346.16 C419.83,367.14 428.8795,384.7877 437.5495,400.4877 " fill="none" id="aws_ec2_volume-to-aws_kms_key" style="stroke:#1A83AF;stroke-width:2.0;"/><polygon fill="#1A83AF" points="440.45,405.74,439.6008,395.9278,438.0329,401.363,432.5977,399.7952,440.45,405.74" style="stroke:#1A83AF;stroke-width:2.0;"/></g><!--link aws_ec2_volume_type to aws_ec2_volume--><g id="link_aws_ec2_volume_type_aws_ec2_volume"><path codeLine="50" d="M511.31,147.01 C481.86,164.15 444.2355,186.0517 414.8055,203.1817 " fill="none" id="aws_ec2_volume_type-to-aws_ec2_volume" style="stroke:#1A83AF;stroke-width:2.0;"/><polygon fill="#1A83AF" points="409.62,206.2,419.4105,205.1296,413.9413,203.6848,415.3861,198.2155,409.62,206.2" style="stroke:#1A83AF;stroke-width:2.0;"/></g><!--link aws_region to aws_ec2_instance--><g id="link_aws_region_aws_ec2_instance"><path codeLine="51" d="M398.42,47.22 C361.08,64.36 312.263,86.7771 274.943,103.9071 " fill="none" id="aws_region-to-aws_ec2_instance" style="stroke:#1A83AF;stroke-width:2.0;"/><polygon fill="#1A83AF" points="269.49,106.41,279.3381,106.2909,274.0342,104.3242,276.0009,99.0202,269.49,106.41" style="stroke:#1A83AF;stroke-width:2.0;"/></g><!--link aws_region to aws_ec2_snapshot--><g id="link_aws_region_aws_ec2_snapshot"><path codeLine="52" d="M509.46,30.17 C564.88,36.07 639.52,54.12 677.5,106.79 C729.84,179.38 621.0591,264.462 563.3691,302.752 " fill="none" id="aws_region-to-aws_ec2_snapshot" style="stroke:#1A83AF;stroke-width:2.0;"/><polygon fill="#1A83AF" points="558.37,306.07,568.0806,304.4257,562.5359,303.305,563.6566,297.7603,558.37,306.07" style="stroke:#1A83AF;stroke-width:2.0;"/></g><!--link aws_region to aws_ec2_volume--><g id="link_aws_region_aws_ec2_volume"><path codeLine="53" d="M432.99,47.23 C426.92,63.12 418.28,86.29 411.5,106.79 C399.96,141.67 389.8216,177.1277 383.3016,200.6677 " fill="none" id="aws_region-to-aws_ec2_volume" style="stroke:#1A83AF;stroke-width:2.0;"/><polygon fill="#1A83AF" points="381.7,206.45,387.9572,198.8442,383.0346,201.6314,380.2475,196.7088,381.7,206.45" style="stroke:#1A83AF;stroke-width:2.0;"/></g><!--link aws_region to aws_ec2_volume_type--><g id="link_aws_region_aws_ec2_volume_type"><path codeLine="54" d="M461.05,47.22 C479.28,64.36 501.4086,85.1701 519.6286,102.3001 " fill="none" id="aws_region-to-aws_ec2_volume_type" style="stroke:#1A83AF;stroke-width:2.0;"/><polygon fill="#1A83AF" points="524,106.41,520.1828,97.3309,520.3572,102.9851,514.703,103.1595,524,106.41" style="stroke:#1A83AF;stroke-width:2.0;"/></g><!--SRC=[dP1HQy8m58NV-oi2FWjMsTINGIV8zY9ZxcsCaZQtDhHDoasgkB7_ldPLoPBQoXxoSi-NUyyvAMT0e2ZraHHGH83AKnaN9KLQa01H7bOobqX6IKAJsTmMrrBeGM132o1FaEz1yvZQn5lAuqo0KcHgI8yqpdOeAy7QzHgfKBK4GXlKAgTA1LeZZoeDXXcsZ1P9OfFsqj6C-VDxS3293F24J2OJvYzjPF1KR-uBiUMVG7opj8tKuDXqJlnIlIuRmZ3f13thLps-KCQus94xO_RQUa81-6U-JIcJXuPEQAxCCqe3WjJ74bPEAbWkM3BlX9-lmLxSL4VeGOLHZLHbM6AT9DR0GWGbAuo1V7dUjm52F0svK9gARaq9MgfKwYvjB_EgWEjAsBYrvQoe7npjCSAEIz5E-mECtqT-i9W5wu_nWnFXFtzRivxJnYtmfHu7FkNqhB8wbvwt3CBTIzkUX-oU6Xwkhm_yuxGFlF6m4S3x0G00]--></g></svg>

<svg xmlns="http://www.w3.org/2000/svg" width="736" height="451" viewBox="0 0 736 451"><rect width="311" height="39.789" x="7" y="7" fill="#3D176E" rx="2.5" ry="2.5" style="stroke:#000d19;stroke-width:.5"/><circle cx="22" cy="26.895" r="11" fill="#ADD1B2" style="stroke:#181818;stroke-width:1"/><path d="M24.969 32.535q-.578.297-1.219.438-.64.156-1.344.156-2.5 0-3.828-1.64-1.312-1.657-1.312-4.782t1.312-4.781q1.328-1.656 3.828-1.656.703 0 1.344.156.656.156 1.219.453v2.719q-.625-.578-1.219-.844-.594-.281-1.219-.281-1.343 0-2.031 1.078-.687 1.062-.687 3.156t.687 3.172q.688 1.062 2.031 1.062.625 0 1.219-.265.594-.281 1.219-.86z"/><text x="41" y="32.78" fill="#D9B8FF" font-family="Helvetica" font-size="17" textLength="269">aws_backup_protected_resource</text><rect width="192" height="39.789" x="131.5" y="106.79" fill="#3D176E" rx="2.5" ry="2.5" style="stroke:#000d19;stroke-width:.5"/><circle cx="146.5" cy="126.684" r="11" fill="#ADD1B2" style="stroke:#181818;stroke-width:1"/><path d="M149.469 132.325q-.578.297-1.219.438-.64.156-1.344.156-2.5 0-3.828-1.64-1.312-1.657-1.312-4.782t1.312-4.781q1.328-1.656 3.828-1.656.703 0 1.344.156.656.156 1.219.453v2.719q-.625-.579-1.219-.844-.594-.281-1.219-.281-1.344 0-2.031 1.078-.687 1.062-.687 3.156t.687 3.172q.688 1.062 2.031 1.062.625 0 1.219-.265.594-.281 1.219-.86z"/><text x="165.5" y="132.57" fill="#D9B8FF" font-family="Helvetica" font-size="17" textLength="150">aws_ec2_instance</text><rect width="197" height="39.789" x="429" y="306.37" fill="#3D176E" rx="2.5" ry="2.5" style="stroke:#000d19;stroke-width:.5"/><circle cx="444" cy="326.264" r="11" fill="#ADD1B2" style="stroke:#181818;stroke-width:1"/><path d="M446.969 331.905q-.578.297-1.219.438-.64.156-1.344.156-2.5 0-3.828-1.64-1.312-1.657-1.312-4.782t1.312-4.781q1.328-1.656 3.828-1.656.703 0 1.344.156.656.156 1.219.453v2.719q-.625-.579-1.219-.844-.594-.281-1.219-.281-1.344 0-2.031 1.078-.687 1.062-.687 3.156t.687 3.172q.688 1.062 2.031 1.062.625 0 1.219-.265.594-.281 1.219-.86z"/><text x="463" y="332.15" fill="#D9B8FF" font-family="Helvetica" font-size="17" textLength="155">aws_ec2_snapshot</text><rect width="185" height="39.789" x="284" y="206.58" fill="#3D176E" rx="2.5" ry="2.5" style="stroke:#000d19;stroke-width:.5"/><circle cx="299" cy="226.475" r="11" fill="#ADD1B2" style="stroke:#181818;stroke-width:1"/><path d="M301.969 232.115q-.578.297-1.219.438-.64.156-1.344.156-2.5 0-3.828-1.64-1.312-1.657-1.312-4.782t1.312-4.781q1.328-1.656 3.828-1.656.703 0 1.344.156.656.156 1.219.453v2.719q-.625-.578-1.219-.844-.594-.281-1.219-.281-1.344 0-2.031 1.078-.687 1.062-.687 3.156t.687 3.172q.688 1.062 2.031 1.062.625 0 1.219-.265.594-.281 1.219-.86z"/><text x="318" y="232.36" fill="#D9B8FF" font-family="Helvetica" font-size="17" textLength="143">aws_ec2_volume</text><rect width="231" height="39.789" x="429" y="106.79" fill="#3D176E" rx="2.5" ry="2.5" style="stroke:#000d19;stroke-width:.5"/><circle cx="444" cy="126.684" r="11" fill="#ADD1B2" style="stroke:#181818;stroke-width:1"/><path d="M446.969 132.325q-.578.297-1.219.438-.64.156-1.344.156-2.5 0-3.828-1.64-1.312-1.657-1.312-4.782t1.312-4.781q1.328-1.656 3.828-1.656.703 0 1.344.156.656.156 1.219.453v2.719q-.625-.579-1.219-.844-.594-.281-1.219-.281-1.344 0-2.031 1.078-.687 1.062-.687 3.156t.687 3.172q.688 1.062 2.031 1.062.625 0 1.219-.265.594-.281 1.219-.86z"/><text x="463" y="132.57" fill="#D9B8FF" font-family="Helvetica" font-size="17" textLength="189">aws_ec2_volume_type</text><rect width="158" height="39.789" x="372.5" y="406.16" fill="#3D176E" rx="2.5" ry="2.5" style="stroke:#000d19;stroke-width:.5"/><circle cx="387.5" cy="426.055" r="11" fill="#ADD1B2" style="stroke:#181818;stroke-width:1"/><path d="M390.469 431.695q-.578.297-1.219.438-.64.156-1.344.156-2.5 0-3.828-1.64-1.312-1.657-1.312-4.782t1.312-4.781q1.328-1.656 3.828-1.656.703 0 1.344.156.656.156 1.219.453v2.719q-.625-.578-1.219-.844-.594-.281-1.219-.281-1.344 0-2.031 1.078-.687 1.062-.687 3.156t.687 3.172q.688 1.062 2.031 1.062.625 0 1.219-.265.594-.281 1.219-.86z"/><text x="406.5" y="431.94" fill="#D9B8FF" font-family="Helvetica" font-size="17" textLength="116">aws_kms_key</text><rect width="137" height="39.789" x="372" y="7" fill="#3D176E" rx="2.5" ry="2.5" style="stroke:#000d19;stroke-width:.5"/><circle cx="387" cy="26.895" r="11" fill="#ADD1B2" style="stroke:#181818;stroke-width:1"/><path d="M389.969 32.535q-.578.297-1.219.438-.64.156-1.344.156-2.5 0-3.828-1.64-1.312-1.657-1.312-4.782t1.312-4.781q1.328-1.656 3.828-1.656.703 0 1.344.156.656.156 1.219.453v2.719q-.625-.578-1.219-.844-.594-.281-1.219-.281-1.344 0-2.031 1.078-.687 1.062-.687 3.156t.687 3.172q.688 1.062 2.031 1.062.625 0 1.219-.265.594-.281 1.219-.86z"/><text x="406" y="32.78" fill="#D9B8FF" font-family="Helvetica" font-size="17" textLength="95">aws_region</text><path fill="none" d="M175.34 47.22c11.4 17.14 24.64 37.062 36.02 54.192" style="stroke:#1a83af;stroke-width:2"/><path fill="#1A83AF" d="m214.68 106.41-1.648-9.71-1.119 5.545-5.545-1.118z" style="stroke:#1a83af;stroke-width:2"/><path fill="none" d="M143.51 47.05c-22.21 24.77-53.16 68.41-30.01 99.53 20.74 27.87 97.228 48.394 164.338 61.924" style="stroke:#1a83af;stroke-width:2"/><path fill="#1A83AF" d="m283.72 209.69-8.032-5.7 3.13 4.712-4.711 3.13z" style="stroke:#1a83af;stroke-width:2"/><path fill="none" d="M256.94 147.01c26.12 17.14 59.064 38.768 85.164 55.898" style="stroke:#1a83af;stroke-width:2"/><path fill="#1A83AF" d="m347.12 206.2-5.33-8.282 1.15 5.538-5.539 1.15z" style="stroke:#1a83af;stroke-width:2"/><path fill="none" d="m512.48 346.59-42.318 54.452" style="stroke:#1a83af;stroke-width:2"/><path fill="#1A83AF" d="m466.48 405.78 8.681-4.652-5.613.704-.704-5.613z" style="stroke:#1a83af;stroke-width:2"/><path fill="none" d="M406.33 246.8c26.48 17.14 59.915 38.787 86.365 55.927" style="stroke:#1a83af;stroke-width:2"/><path fill="#1A83AF" d="m497.73 305.99-5.378-8.251 1.182 5.532-5.532 1.181z" style="stroke:#1a83af;stroke-width:2"/><path fill="none" d="M381.03 246.75c5.85 23.78 16.91 65.27 30.47 99.41 8.33 20.98 17.38 38.628 26.05 54.328" style="stroke:#1a83af;stroke-width:2"/><path fill="#1A83AF" d="m440.45 405.74-.85-9.812-1.567 5.435-5.435-1.568z" style="stroke:#1a83af;stroke-width:2"/><path fill="none" d="M511.31 147.01c-29.45 17.14-67.074 39.042-96.504 56.172" style="stroke:#1a83af;stroke-width:2"/><path fill="#1A83AF" d="m409.62 206.2 9.79-1.07-5.469-1.445 1.445-5.47z" style="stroke:#1a83af;stroke-width:2"/><path fill="none" d="M398.42 47.22c-37.34 17.14-86.157 39.557-123.477 56.687" style="stroke:#1a83af;stroke-width:2"/><path fill="#1A83AF" d="m269.49 106.41 9.848-.12-5.304-1.966 1.967-5.304z" style="stroke:#1a83af;stroke-width:2"/><path fill="none" d="M509.46 30.17c55.42 5.9 130.06 23.95 168.04 76.62 52.34 72.59-56.44 157.672-114.13 195.962" style="stroke:#1a83af;stroke-width:2"/><path fill="#1A83AF" d="m558.37 306.07 9.71-1.644-5.544-1.121 1.12-5.545z" style="stroke:#1a83af;stroke-width:2"/><path fill="none" d="M432.99 47.23c-6.07 15.89-14.71 39.06-21.49 59.56-11.54 34.88-21.678 70.338-28.198 93.878" style="stroke:#1a83af;stroke-width:2"/><path fill="#1A83AF" d="m381.7 206.45 6.257-7.606-4.922 2.787-2.788-4.922z" style="stroke:#1a83af;stroke-width:2"/><path fill="none" d="M461.05 47.22c18.23 17.14 40.359 37.95 58.579 55.08" style="stroke:#1a83af;stroke-width:2"/><path fill="#1A83AF" d="m524 106.41-3.817-9.08.174 5.655-5.654.174z" style="stroke:#1a83af;stroke-width:2"/></svg>
